SVG_Azure_All/IoT Hub Security Alert.svg

<?xml version="1.0" encoding="UTF-8" standalone="no"?>
<!-- Generated by Microsoft Visio, SVG Export IoT Hub Security Alert.svg Page-1 -->

<svg
   xmlns:dc="http://purl.org/dc/elements/1.1/"
   xmlns:cc="http://creativecommons.org/ns#"
   xmlns:rdf="http://www.w3.org/1999/02/22-rdf-syntax-ns#"
   xmlns:svg="http://www.w3.org/2000/svg"
   xmlns="http://www.w3.org/2000/svg"
   xmlns:sodipodi="http://sodipodi.sourceforge.net/DTD/sodipodi-0.dtd"
   xmlns:inkscape="http://www.inkscape.org/namespaces/inkscape"
   width="0.59196943in"
   height="0.78738731in"
   viewBox="0 0 42.621796 56.691887"
   xml:space="preserve"
   class="st4"
   version="1.1"
   id="svg29"
   sodipodi:docname="IoT Hub Security Alert.svg"
   style="font-size:12px;overflow:visible;color-interpolation-filters:sRGB;fill:none;fill-rule:evenodd;stroke-linecap:square;stroke-miterlimit:3"
   inkscape:version="0.92.5 (2060ec1f9f, 2020-04-08)"><metadata
   id="metadata35"><rdf:RDF><cc:Work
       rdf:about=""><dc:format>image/svg+xml</dc:format><dc:type
         rdf:resource="http://purl.org/dc/dcmitype/StillImage" /></cc:Work></rdf:RDF></metadata><defs
   id="defs33" /><sodipodi:namedview
   pagecolor="#ffffff"
   bordercolor="#666666"
   borderopacity="1"
   objecttolerance="10"
   gridtolerance="10"
   guidetolerance="10"
   inkscape:pageopacity="0"
   inkscape:pageshadow="2"
   inkscape:window-width="640"
   inkscape:window-height="480"
   id="namedview31"
   showgrid="false"
   inkscape:zoom="1.6811991"
   inkscape:cx="28.414623"
   inkscape:cy="24.831074"
   inkscape:window-x="0"
   inkscape:window-y="0"
   inkscape:window-maximized="0"
   inkscape:current-layer="svg29" />
	<style
   type="text/css"
   id="style2">
	<![CDATA[
		.st1 {fill:#7ac3e1;stroke:none;stroke-linecap:butt;stroke-width:14.5714}
		.st2 {fill:#54a5cb;stroke:none;stroke-linecap:butt;stroke-width:14.5714}
		.st3 {fill:#ffffff;stroke:none;stroke-linecap:butt;stroke-width:14.5714}
		.st4 {fill:none;fill-rule:evenodd;font-size:12px;overflow:visible;stroke-linecap:square;stroke-miterlimit:3}
	]]>
	</style>

	<g
   id="g27"
   transform="translate(-14.571635,-14.57242)">
		<title
   id="title4">Page-1</title>
		<g
   id="group3843-1"
   transform="translate(14.6075,-34.0157)">
			<title
   id="title6">IoT Hub Security Alert</title>
			<g
   id="group3844-2">
				<title
   id="title8">Sheet.3844</title>
				<g
   id="shape3845-3">
					<title
   id="title10">Sheet.3845</title>
					<path
   d="m 41.12,89.73 c 0,0 -4.84,9.73 -18.13,15.07 l -1.56,0.48 -1.52,-0.47 A 38.0417,36.8099 0 0 1 1.3,89.73 11.3274,10.9606 0 0 1 0,85.03 V 60.09 a 1.395,1.34983 0 0 1 1.67,-1.62 17.856,17.2778 -180 0 0 18.53,-9.52 1.9809,1.91676 0 0 1 1.2,-0.36 2.05065,1.98425 0 0 1 1.24,0.34 17.1725,16.6164 -180 0 0 18.14,9.45 1.395,1.34983 0 0 1 1.74,1.7 v 24.95 a 11.3274,10.9606 0 0 1 -1.4,4.7 z"
   class="st1"
   id="path12"
   inkscape:connector-curvature="0"
   style="fill:#7ac3e1;stroke:none;stroke-width:14.57139969;stroke-linecap:butt" />
				</g>
				<g
   id="shape3846-5"
   transform="translate(6.77971)">
					<title
   id="title15">Sheet.3846</title>
					<path
   d="m 16.21,104.8 -1.56,0.48 -1.52,-0.47 A 40.748,39.4286 0 0 1 0,96.43 L 29.34,58.47 a 20.6879,20.018 -180 0 0 4.66,0 1.395,1.34983 0 0 1 1.74,1.61 v 24.95 a 11.3274,10.9606 0 0 1 -1.4,4.69 c 0,0 -4.84,9.74 -18.13,15.08 z"
   class="st2"
   id="path17"
   inkscape:connector-curvature="0"
   style="fill:#54a5cb;stroke:none;stroke-width:14.57139969;stroke-linecap:butt" />
				</g>
				<g
   id="shape3847-7"
   transform="translate(17.6189,-13.7926)">
					<title
   id="title20">Sheet.3847</title>
					<path
   d="M 3.65,99.27 A 3.64096,3.52306 0 1 1 0.03,102.8 3.62701,3.50956 0 0 1 3.65,99.27 Z M 0,78.04 H 7.25 L 5.23,94.97 H 1.9 Z"
   class="st3"
   id="path22"
   inkscape:connector-curvature="0"
   style="fill:#ffffff;stroke:none;stroke-width:14.57139969;stroke-linecap:butt" />
				</g>
			</g>
		</g>
	</g>
</svg>

<?xml version="1.0" encoding="UTF-8" standalone="no"?>
<!DOCTYPE svg PUBLIC "-//W3C//DTD SVG 1.1//EN" "http://www.w3.org/Graphics/SVG/1.1/DTD/svg11.dtd">
<!-- Generated by Microsoft Visio, SVG Export IoT Hub Security Alert.svg Page-1 -->
<svg xmlns="http://www.w3.org/2000/svg" xmlns:xlink="http://www.w3.org/1999/xlink" xmlns:ev="http://www.w3.org/2001/xml-events"
		width="0.996739in" height="1.46225in" viewBox="0 0 71.7652 105.282" xml:space="preserve" color-interpolation-filters="sRGB"
		class="st4">
	<style type="text/css">
	<![CDATA[
		.st1 {fill:#7ac3e1;stroke:none;stroke-linecap:butt;stroke-width:14.5714}
		.st2 {fill:#54a5cb;stroke:none;stroke-linecap:butt;stroke-width:14.5714}
		.st3 {fill:#ffffff;stroke:none;stroke-linecap:butt;stroke-width:14.5714}
		.st4 {fill:none;fill-rule:evenodd;font-size:12px;overflow:visible;stroke-linecap:square;stroke-miterlimit:3}
	]]>
	</style>

	<g>
		<title>Page-1</title>
		<g id="group3759-1" transform="translate(14.6075,-34.0157)">
			<title>IoT Hub Security Alert</title>
			<g id="group3760-2">
				<title>Sheet.3760</title>
				<g id="shape3761-3">
					<title>Sheet.3761</title>
					<path d="M41.12 89.73 C41.12 89.73 36.28 99.46 22.99 104.8 L21.43 105.28 L19.91 104.81 A38.0417 36.8099 0 0 1
								 1.3 89.73 A11.3274 10.9606 0 0 1 0 85.03 L0 60.09 A1.395 1.34983 0 0 1 1.67 58.47 A17.856 17.2778
								 -180 0 0 20.2 48.95 A1.9809 1.91676 0 0 1 21.4 48.59 A2.05065 1.98425 0 0 1 22.64 48.93 A17.1725
								 16.6164 -180 0 0 40.78 58.38 A1.395 1.34983 0 0 1 42.52 60.08 L42.52 85.03 A11.3274 10.9606 0 0
								 1 41.12 89.73 Z" class="st1"/>
				</g>
				<g id="shape3762-5" transform="translate(6.77971,2.84217E-13)">
					<title>Sheet.3762</title>
					<path d="M16.21 104.8 L14.65 105.28 L13.13 104.81 A40.748 39.4286 0 0 1 0 96.43 L29.34 58.47 A20.6879 20.018
								 -180 0 0 34 58.47 A1.395 1.34983 0 0 1 35.74 60.08 L35.74 85.03 A11.3274 10.9606 0 0 1 34.34 89.72
								 C34.34 89.72 29.5 99.46 16.21 104.8 Z" class="st2"/>
				</g>
				<g id="shape3763-7" transform="translate(17.6189,-13.7926)">
					<title>Sheet.3763</title>
					<path d="M3.65 99.27 A3.64096 3.52306 0 1 1 0.03 102.8 A3.62701 3.50956 0 0 1 3.65 99.27 ZM0 78.04 L7.25 78.04
								 L5.23 94.97 L1.9 94.97 L0 78.04 Z" class="st3"/>
				</g>
			</g>
		</g>
	</g>
</svg>
